X: 20392
T: SCIPIO'S HORNPIPE
C:
%R: hornpipe, reel
B: Elias Howe "The Musician's Companion" 1843 p.38 #2
S: http://imslp.org/wiki/The_Musician's_Companion_(Howe,_Elias)
Z: 2015 John Chambers <jc:trillian.mit.edu>
N: Shortened final note to fix the rhythm of repeats.
M: C|
L: 1/8
K: A
% - - - - - - - - - - - - - - - - - - - - - - - - -
A,2 |\
CEAc BGEC | C2ef e2c2 | dBfd cAec | GABG E2ED |\
CEAc BGED | C2ef e2c2 | dBfd cAec | A2A2 A2 :|
|: (3(e/f/g/) |\
agae dcBA | fedc d2G2 | [B2G2][B2G2] [c2A2][c2A2] | BcBA GFED |\
CA,EC AEcE | ecaf e2c2 | dBfd cAec | GABG A2 :|
% - - - - - - - - - - - - - - - - - - - - - - - - -

%%sep 1 1 500

